X: 638
T: Hawks and Eagles
B: jims roots
M:4/8
L:1/8
Q: 1/4=100
K:D
V:1 
%Old-Time
%TablEdited by Mike Stangeland
%224
|: "D"Bd2B dBAB | BAdA Bd[A2D] | "A"[e3A3]f [e2A]de | fefe d2B2 |
"D"Bd2B d2AB | BAdB [A2D]F2 | "A"A3B [A2E]BA |[1 zF"A"EE "D"D2AA :|[2 zF"A"EE "D"D4||
|: "D"D3D DB,A,A, | B,DDD B,2A,2 | "A"E3F E2DE | FDFD EDB,2 |
"D"D3E DB,A,A, | B,DDD B,2A,A, | "A"A3B [A2E]FA | zFED "D"D4 :|
% abcbook-tune_id 6298c25dca2ae7f5465720ca


% abcbook-boost 0
% abcbook-tablature 
% abcbook-transpose 
% abcbook-lastupdated 1654178398672
% abcbook-soundfonts 
% abcbook-repeats 1


